X:2978
T:Mustalainen
C:anon.
O:Hungary / Romania
Z:Transcribed by Frank Nordberg - http://www.musicaviva.com
F:http://abc.musicaviva.com/tunes/hungary/mustalainen.abc
M:2/4
L:1/8
K:Dm
A2A2|d3A|G<F E<D|E4|A2f2|e3d|c<A AB|A4|
|:A2e2|f3d|c<G A<B|A4|A2^c2|d3B|A<G FE|D4:|
W:
W:
W:  From Musica Viva - http://www.musicaviva.com
W:  the Internet center for free sheet music downloads.
